src/assets/img/usdt.svg

<svg width="48" height="48" viewBox="0 0 48 48" fill="none" xmlns="http://www.w3.org/2000/svg">
<g clip-path="url(#clip0_6722_378)">
<path d="M24 48C37.2548 48 48 37.2548 48 24C48 10.7452 37.2548 0 24 0C10.7452 0 0 10.7452 0 24C0 37.2548 10.7452 48 24 48Z" fill="#C0E6FF"/>
<path fill-rule="evenodd" clip-rule="evenodd" d="M27 26.1C25.0022 26.2309 22.9979 26.2309 21 26.1C15.15 25.8 10.8 24.75 10.8 23.55C10.8 22.35 15.3 21.3 21 21.15V25.05C22.9977 25.1853 25.0023 25.1853 27 25.05V21.15C32.7 21.3 37.05 22.35 37.05 23.55C37.05 24.75 32.7 25.8 26.85 26.1M26.85 20.7V17.1H34.95V11.7H12.9V17.1H21V20.7C14.4 21 9.45001 22.2 9.45001 23.85C9.45001 25.35 14.4 26.85 21 27V38.4H27V27C33.45 26.7 38.4 25.5 38.4 24C38.4 22.35 33.45 21 26.85 20.7Z" fill="#2263A7"/>
</g>
<defs>
<clipPath id="clip0_6722_378">
<rect width="48" height="48" rx="24" fill="white"/>
</clipPath>
</defs>
</svg>

<svg xmlns="http://www.w3.org/2000/svg" fill="none" viewBox="0 0 48 48">
  <g clip-path="url(#a)">
    <path fill="#c0e6ff" d="M24 48c13.255 0 24-10.745 24-24S37.255 0 24 0 0 10.745 0 24s10.745 24 24 24"/>
    <path fill="#2263a7" fill-rule="evenodd" d="M27 26.1c-1.998.13-4.002.13-6 0-5.85-.3-10.2-1.35-10.2-2.55s4.5-2.25 10.2-2.4v3.9c1.998.135 4.002.135 6 0v-3.9c5.7.15 10.05 1.2 10.05 2.4s-4.35 2.25-10.2 2.55m0-5.4v-3.6h8.1v-5.4H12.9v5.4H21v3.6c-6.6.3-11.55 1.5-11.55 3.15 0 1.5 4.95 3 11.55 3.15v11.4h6V27c6.45-.3 11.4-1.5 11.4-3 0-1.65-4.95-3-11.55-3.3" clip-rule="evenodd"/>
  </g>
  <defs>
    <clipPath id="a">
      <rect width="48" height="48" fill="#fff" rx="24"/>
    </clipPath>
  </defs>
</svg>
